static/img/kroki/c80d1ee2512ef4d21d882c540882cd20.svg

<?xml version="1.0" encoding="us-ascii" standalone="no"?><svg xmlns="http://www.w3.org/2000/svg" xmlns:xlink="http://www.w3.org/1999/xlink" contentStyleType="text/css" height="352px" preserveAspectRatio="none" style="width:372px;height:352px;" version="1.1" viewBox="0 0 372 352" width="372px" zoomAndPan="magnify"><defs/><g><!--class digitalocean_domain--><g id="elem_digitalocean_domain"><rect codeLine="22" fill="#3D176E" height="39.7891" id="digitalocean_domain" rx="2.5" ry="2.5" style="stroke:#000D19;stroke-width:0.5;" width="215" x="40.26" y="206.58"/><ellipse cx="55.26" cy="226.4745" fill="#ADD1B2" rx="11" ry="11" style="stroke:#181818;stroke-width:1.0;"/><path d="M58.2288,232.1152 Q57.6506,232.412 57.01,232.5527 Q56.3694,232.7089 55.6663,232.7089 Q53.1663,232.7089 51.8381,231.0683 Q50.5256,229.412 50.5256,226.287 Q50.5256,223.162 51.8381,221.5058 Q53.1663,219.8495 55.6663,219.8495 Q56.3694,219.8495 57.01,220.0058 Q57.6663,220.162 58.2288,220.4589 L58.2288,223.1777 Q57.6038,222.5995 57.01,222.3339 Q56.4163,222.0527 55.7913,222.0527 Q54.4475,222.0527 53.76,223.1308 Q53.0725,224.1933 53.0725,226.287 Q53.0725,228.3808 53.76,229.4589 Q54.4475,230.5214 55.7913,230.5214 Q56.4163,230.5214 57.01,230.2558 Q57.6038,229.9745 58.2288,229.3964 L58.2288,232.1152 Z " fill="#000000"/><text fill="#D9B8FF" font-family="Helvetica" font-size="17" lengthAdjust="spacing" textLength="173" x="74.26" y="232.3598">digitalocean_domain</text></g><!--class digitalocean_domain_record--><g id="elem_digitalocean_domain_record"><rect codeLine="24" fill="#3D176E" height="39.7891" id="digitalocean_domain_record" rx="2.5" ry="2.5" style="stroke:#000D19;stroke-width:0.5;" width="276" x="89.76" y="306.37"/><ellipse cx="104.76" cy="326.2645" fill="#ADD1B2" rx="11" ry="11" style="stroke:#181818;stroke-width:1.0;"/><path d="M107.7288,331.9052 Q107.1506,332.202 106.51,332.3427 Q105.8694,332.4989 105.1663,332.4989 Q102.6663,332.4989 101.3381,330.8583 Q100.0256,329.202 100.0256,326.077 Q100.0256,322.952 101.3381,321.2958 Q102.6663,319.6395 105.1663,319.6395 Q105.8694,319.6395 106.51,319.7958 Q107.1663,319.952 107.7288,320.2489 L107.7288,322.9677 Q107.1038,322.3895 106.51,322.1239 Q105.9163,321.8427 105.2913,321.8427 Q103.9475,321.8427 103.26,322.9208 Q102.5725,323.9833 102.5725,326.077 Q102.5725,328.1708 103.26,329.2489 Q103.9475,330.3114 105.2913,330.3114 Q105.9163,330.3114 106.51,330.0458 Q107.1038,329.7645 107.7288,329.1864 L107.7288,331.9052 Z " fill="#000000"/><text fill="#D9B8FF" font-family="Helvetica" font-size="17" lengthAdjust="spacing" textLength="234" x="123.76" y="332.1498">digitalocean_domain_record</text></g><!--class digitalocean_project--><g id="elem_digitalocean_project"><rect codeLine="26" fill="#3D176E" height="39.7891" id="digitalocean_project" rx="2.5" ry="2.5" style="stroke:#000D19;stroke-width:0.5;" width="209" x="45.26" y="106.79"/><ellipse cx="60.26" cy="126.6845" fill="#ADD1B2" rx="11" ry="11" style="stroke:#181818;stroke-width:1.0;"/><path d="M63.2288,132.3252 Q62.6506,132.622 62.01,132.7627 Q61.3694,132.9189 60.6663,132.9189 Q58.1663,132.9189 56.8381,131.2783 Q55.5256,129.622 55.5256,126.497 Q55.5256,123.372 56.8381,121.7158 Q58.1663,120.0595 60.6663,120.0595 Q61.3694,120.0595 62.01,120.2158 Q62.6663,120.372 63.2288,120.6689 L63.2288,123.3877 Q62.6038,122.8095 62.01,122.5439 Q61.4163,122.2627 60.7913,122.2627 Q59.4475,122.2627 58.76,123.3408 Q58.0725,124.4033 58.0725,126.497 Q58.0725,128.5908 58.76,129.6689 Q59.4475,130.7314 60.7913,130.7314 Q61.4163,130.7314 62.01,130.4658 Q62.6038,130.1845 63.2288,129.6064 L63.2288,132.3252 Z " fill="#000000"/><text fill="#D9B8FF" font-family="Helvetica" font-size="17" lengthAdjust="spacing" textLength="167" x="79.26" y="132.5698">digitalocean_project</text></g><!--class digitalocean_team--><g id="elem_digitalocean_team"><rect codeLine="28" fill="#3D176E" height="39.7891" id="digitalocean_team" rx="2.5" ry="2.5" style="stroke:#000D19;stroke-width:0.5;" width="196" x="51.76" y="7"/><ellipse cx="66.76" cy="26.8945" fill="#ADD1B2" rx="11" ry="11" style="stroke:#181818;stroke-width:1.0;"/><path d="M69.7288,32.5352 Q69.1506,32.832 68.51,32.9727 Q67.8694,33.1289 67.1663,33.1289 Q64.6663,33.1289 63.3381,31.4883 Q62.0256,29.832 62.0256,26.707 Q62.0256,23.582 63.3381,21.9258 Q64.6663,20.2695 67.1663,20.2695 Q67.8694,20.2695 68.51,20.4258 Q69.1663,20.582 69.7288,20.8789 L69.7288,23.5977 Q69.1038,23.0195 68.51,22.7539 Q67.9163,22.4727 67.2913,22.4727 Q65.9475,22.4727 65.26,23.5508 Q64.5725,24.6133 64.5725,26.707 Q64.5725,28.8008 65.26,29.8789 Q65.9475,30.9414 67.2913,30.9414 Q67.9163,30.9414 68.51,30.6758 Q69.1038,30.3945 69.7288,29.8164 L69.7288,32.5352 Z " fill="#000000"/><text fill="#D9B8FF" font-family="Helvetica" font-size="17" lengthAdjust="spacing" textLength="154" x="85.76" y="32.7798">digitalocean_team</text></g><!--link digitalocean_domain to digitalocean_domain_record--><g id="link_digitalocean_domain_digitalocean_domain_record"><path codeLine="30" d="M163.56,246.8 C176.38,262.47 194.51,284.63 208.24,301.41 " fill="none" id="digitalocean_domain-to-digitalocean_domain_record" style="stroke:#1A83AF;stroke-width:2.0;"/><polygon fill="#1A83AF" points="211.98,304.99,209.392,295.4873,208.82,301.1151,203.1922,300.5432,211.98,304.99" style="stroke:#1A83AF;stroke-width:2.0;"/></g><!--link digitalocean_project to digitalocean_domain--><g id="link_digitalocean_project_digitalocean_domain"><path codeLine="31" d="M149.36,147.01 C149.05,162.28 148.61,183.71 148.27,200.32 " fill="none" id="digitalocean_project-to-digitalocean_domain" style="stroke:#1A83AF;stroke-width:2.0;"/><polygon fill="#1A83AF" points="148.15,205.2,152.3292,196.2818,148.25,200.201,144.3308,196.1218,148.15,205.2" style="stroke:#1A83AF;stroke-width:2.0;"/></g><!--link digitalocean_team to digitalocean_domain--><g id="link_digitalocean_team_digitalocean_domain"><path codeLine="32" d="M97.82,47.28 C71.8,59.95 42.71,79.32 27.76,106.79 C6,146.78 54.84,181.94 96.61,203.41 " fill="none" id="digitalocean_team-to-digitalocean_domain" style="stroke:#1A83AF;stroke-width:2.0;"/><polygon fill="#1A83AF" points="100.92,206.09,94.6881,198.4635,96.4565,203.8368,91.0831,205.6051,100.92,206.09" style="stroke:#1A83AF;stroke-width:2.0;"/></g><!--link digitalocean_team to digitalocean_domain_record--><g id="link_digitalocean_team_digitalocean_domain_record"><path codeLine="33" d="M201.27,47.19 C227.34,59.87 256.61,79.29 271.76,106.79 C301.68,161.13 288.66,186.41 272.76,246.37 C267.49,266.23 255.93,286.3 245.85,301.24 " fill="none" id="digitalocean_team-to-digitalocean_domain_record" style="stroke:#1A83AF;stroke-width:2.0;"/><polygon fill="#1A83AF" points="242.5,305.1,250.8949,299.9497,245.3326,300.9798,244.3026,295.4175,242.5,305.1" style="stroke:#1A83AF;stroke-width:2.0;"/></g><!--link digitalocean_team to digitalocean_project--><g id="link_digitalocean_team_digitalocean_project"><path codeLine="34" d="M149.76,47.22 C149.76,62.49 149.76,83.92 149.76,100.53 " fill="none" id="digitalocean_team-to-digitalocean_project" style="stroke:#1A83AF;stroke-width:2.0;"/><polygon fill="#1A83AF" points="149.76,105.41,153.76,96.41,149.76,100.41,145.76,96.41,149.76,105.41" style="stroke:#1A83AF;stroke-width:2.0;"/></g><!--SRC=[jP1DJm8n48Rl-okQS2PX9GfSJ5OIeXTYn9inP6YdKDbjDzD1WiR_BYjeodwUlFPzfkypip4A1MOv7qI6sGh9HtvhR0u4cKY8t7xgKaUYfpNeuQWSpfpbJc0E6OfxJD-HZOGoyRmnSclHUt4LH7SWjsjoEwjEtpE1zSS8BGVKD0Nl4sOognrZ8ACcgx7MPRByQM-euj4DLZ172kcC30O35K_AI6TLwzv_nC9ye8Z3eyqTOqMpKl53jLeMH21PMVGtRtHy1AMCNOlhuEtfv4GMwU9ziG7bzWMj8VLXZMSaT7p8SLhP2YTZfKUry4CJB8lB2MNMXY5r4i4kbSl0MF4PVJMdIq9vF5SJb9DxGybDCUDHhiZgUlillJWP3vFPQ_-sfJggBUmQZgeU_p1IgzWnUTxW6m00]--></g></svg>

<svg xmlns="http://www.w3.org/2000/svg" width="372" height="352" preserveAspectRatio="none" style="width:372px;height:352px"><rect width="215" height="39.789" x="40.26" y="206.58" fill="#3D176E" rx="2.5" ry="2.5" style="stroke:#000d19;stroke-width:.5"/><circle cx="55.26" cy="226.475" r="11" fill="#ADD1B2" style="stroke:#181818;stroke-width:1"/><path d="M58.229 232.115q-.578.297-1.219.438-.64.156-1.344.156-2.5 0-3.828-1.64-1.312-1.657-1.312-4.782t1.312-4.781q1.328-1.656 3.828-1.656.703 0 1.344.156.656.156 1.219.453v2.719q-.625-.578-1.219-.844-.594-.281-1.219-.281-1.343 0-2.031 1.078-.688 1.062-.688 3.156 0 2.094.688 3.172.688 1.062 2.031 1.062.625 0 1.219-.265.594-.281 1.219-.86v2.72Z"/><text x="74.26" y="232.36" fill="#D9B8FF" font-family="Helvetica" font-size="17" textLength="173">digitalocean_domain</text><rect width="276" height="39.789" x="89.76" y="306.37" fill="#3D176E" rx="2.5" ry="2.5" style="stroke:#000d19;stroke-width:.5"/><circle cx="104.76" cy="326.264" r="11" fill="#ADD1B2" style="stroke:#181818;stroke-width:1"/><path d="M107.729 331.905q-.578.297-1.219.438-.64.156-1.344.156-2.5 0-3.828-1.64-1.312-1.657-1.312-4.782t1.312-4.781q1.328-1.656 3.828-1.656.703 0 1.344.156.656.156 1.219.453v2.719q-.625-.579-1.219-.844-.594-.281-1.219-.281-1.343 0-2.031 1.078-.688 1.062-.688 3.156 0 2.094.688 3.172.688 1.062 2.031 1.062.625 0 1.219-.265.594-.281 1.219-.86v2.72Z"/><text x="123.76" y="332.15" fill="#D9B8FF" font-family="Helvetica" font-size="17" textLength="234">digitalocean_domain_record</text><rect width="209" height="39.789" x="45.26" y="106.79" fill="#3D176E" rx="2.5" ry="2.5" style="stroke:#000d19;stroke-width:.5"/><circle cx="60.26" cy="126.684" r="11" fill="#ADD1B2" style="stroke:#181818;stroke-width:1"/><path d="M63.229 132.325q-.578.297-1.219.438-.64.156-1.344.156-2.5 0-3.828-1.64-1.312-1.657-1.312-4.782t1.312-4.781q1.328-1.656 3.828-1.656.703 0 1.344.156.656.156 1.219.453v2.719q-.625-.579-1.219-.844-.594-.281-1.219-.281-1.343 0-2.031 1.078-.688 1.062-.688 3.156 0 2.094.688 3.172.688 1.062 2.031 1.062.625 0 1.219-.265.594-.281 1.219-.86v2.72Z"/><text x="79.26" y="132.57" fill="#D9B8FF" font-family="Helvetica" font-size="17" textLength="167">digitalocean_project</text><rect width="196" height="39.789" x="51.76" y="7" fill="#3D176E" rx="2.5" ry="2.5" style="stroke:#000d19;stroke-width:.5"/><circle cx="66.76" cy="26.895" r="11" fill="#ADD1B2" style="stroke:#181818;stroke-width:1"/><path d="M69.729 32.535q-.578.297-1.219.438-.64.156-1.344.156-2.5 0-3.828-1.64-1.312-1.657-1.312-4.782t1.312-4.781q1.328-1.656 3.828-1.656.703 0 1.344.156.656.156 1.219.453v2.719q-.625-.578-1.219-.844-.594-.281-1.219-.281-1.343 0-2.031 1.078-.688 1.062-.688 3.156 0 2.094.688 3.172.688 1.062 2.031 1.062.625 0 1.219-.265.594-.281 1.219-.86v2.72Z"/><text x="85.76" y="32.78" fill="#D9B8FF" font-family="Helvetica" font-size="17" textLength="154">digitalocean_team</text><path fill="none" d="m163.56 246.8 44.68 54.61" style="stroke:#1a83af;stroke-width:2"/><path fill="#1A83AF" d="m211.98 304.99-2.588-9.503-.572 5.628-5.628-.572 8.788 4.447z" style="stroke:#1a83af;stroke-width:2"/><path fill="none" d="M149.36 147.01c-.31 15.27-.75 36.7-1.09 53.31" style="stroke:#1a83af;stroke-width:2"/><path fill="#1A83AF" d="m148.15 205.2 4.18-8.918-4.08 3.919-3.92-4.08 3.82 9.079z" style="stroke:#1a83af;stroke-width:2"/><path fill="none" d="M97.82 47.28C71.8 59.95 42.71 79.32 27.76 106.79 6 146.78 54.84 181.94 96.61 203.41" style="stroke:#1a83af;stroke-width:2"/><path fill="#1A83AF" d="m100.92 206.09-6.232-7.626 1.769 5.373-5.374 1.768 9.837.485z" style="stroke:#1a83af;stroke-width:2"/><path fill="none" d="M201.27 47.19c26.07 12.68 55.34 32.1 70.49 59.6 29.92 54.34 16.9 79.62 1 139.58-5.27 19.86-16.83 39.93-26.91 54.87" style="stroke:#1a83af;stroke-width:2"/><path fill="#1A83AF" d="m242.5 305.1 8.395-5.15-5.562 1.03-1.03-5.563-1.803 9.683z" style="stroke:#1a83af;stroke-width:2"/><path fill="none" d="M149.76 47.22v53.31" style="stroke:#1a83af;stroke-width:2"/><path fill="#1A83AF" d="m149.76 105.41 4-9-4 4-4-4 4 9z" style="stroke:#1a83af;stroke-width:2"/></svg>
